X: 1
T:My Dungannon Sweetheart
R:Jig
O:Scotland
O:Ireland
O:Canada
M:6/8
C:Graham Townsend
K:C
C2E GAc | e3- e2 B | dcc cGE | GFF FDB, |\
G,B,D GBd | g3 gfe | fdB GAB \
|1 cEA GED :|2 ced c3 :|
e3- ecA | G3- GEA | GEA GEA | GFE F3 |\
feg fdB | GBd gfe | fdB GAB \
|1 cEA G3 :|2 ced c3 |]
